X: 32459
T: Pit Hame Da Borrowed Claes
R: reel
M: 4/4
K: Gmajor
{D}G2BA BABd|edBd gedB|{D}G2BA BABd|edgB {B}A2AB:|
dBgB dBAB|dBgd BAAB|dBgB edB2|gfgd {B}A2AB|
dBgB edBg|dBgd BAAB|dBgB defg|afgd {B}A2AB||

